X:1
T:Title
%%score { ( 1 3 4 ) | ( 2 5 ) }
L:1/8
M:4/4
K:Bb
V:1 treble nm="Grand Piano"
V:3 treble 
V:4 treble 
V:2 bass 
V:5 bass 
V:1
 z4 z2[Q:1/4=100] F>F | [DB]2 [DB]>[DB] [DB]FG[EA] | B6 z2 | d2 d>d fdcB | c6 z2 | %5
 [Fd]2 [Fd]>[Fd] [Ec]<[DB] z [FB] | G2 G>G c<B z G | F2 FB dcGA |[M:3/4] B6 |[M:1/4] F2 | %10
[M:4/4] B2 B>B BFG[EA] | B6 z2 | d2 d>d fdcB | c6 z2 | [Fd]>[Fd] [Fd]2 [Ec]<[DB] z [FB] | %15
 G>G G2 c<B z G | F2 FB dcGA |[M:3/4] B6 |] %18
V:2
 z4 z2 F,>F, | [B,,F,]2 [B,,F,]>[B,,F,] [B,,F,][D,B,][E,B,E][C,F,] | %2
 [B,,F,]2 [D,B,]>[F,A,] [B,,B,]2 [D,B,]>[K:treble][F,A,F] | %3
 [B,F]2 [B,F]>[B,F] [B,DF][B,F][A,CF][K:bass][G,C=E] | [F,A,F]2 [A,C]>[G,B,] [F,A,]E,[D,B,][C,A,] | %5
 [B,,B,]2 [B,,B,]>[B,,B,] [B,,F,]<[B,,F,] z [D,B,] | %6
 [E,B,E]2 [E,B,E]>[E,B,E] [E,G,E]<[E,G,E] z [E,B,E] | %7
 [F,B,D]2 [F,D][F,DF] [F,B,F][F,A,F][F,CE][F,CE] |[M:3/4] z2 G,>G, F,2 |[M:1/4] F,2 | %10
[M:4/4] B,2 B,>B, B,F,[E,F,C][C,F,] | z4 z2 B,2[K:treble] | %12
 [B,F]2 [B,F]>[B,F] [B,DF][B,F][A,CF][K:bass][G,C=E] | [F,A,F]2 [A,C]>[G,B,] [F,A,]E,[D,B,]C, | %14
 [B,,B,]>[B,,B,] [B,,B,]2 [B,,F,]<[B,,F,] z [D,B,] | %15
 [E,B,E]>[E,B,E] [E,B,E]2 [E,G,E]<[E,G,E] z [E,B,E] | %16
 [F,B,D]2 [F,D][F,DF] [F,B,F][F,A,F][F,CE][F,CE] |[M:3/4] z2 G,>G, F,2 |] %18
V:3
 x8 | x8 | D2 F>E D2 [FB]>c | x8 | z4 F2 z2 | x8 | x8 | x8 |[M:3/4] [B,D]2 E>E D2 |[M:1/4] x2 | %10
[M:4/4] x8 | D2 F>E D2 [DB]>c | x8 | z4 F2 F2 | x8 | x8 | x8 |[M:3/4] [B,D]2 E>E D2 |] %18
V:4
 x8 | x8 | x8 | x8 | z2 F>=E z CFF | x8 | x8 | x8 |[M:3/4] x6 |[M:1/4] x2 |[M:4/4] x8 | x8 | x8 | %13
 z2 F>=E z C z A, | x8 | x8 | x8 |[M:3/4] x6 |] %18
V:5
 x8 | x8 | x15/2[K:treble] x/ | x7[K:bass] x | x8 | x8 | x8 | x8 |[M:3/4] B,,6 |[M:1/4] x2 | %10
[M:4/4] x8 | [B,,F,]2 [D,B,]>[F,A,] B,2 z z/[K:treble] E/ | x7[K:bass] x | x8 | x8 | x8 | x8 | %17
[M:3/4] B,,6 |] %18

